styles/icons/chevrons_right.svg

<svg xmlns="http://www.w3.org/2000/svg" width="24" height="24" viewBox="0 0 24 24">
  <path fill-rule="evenodd" d="M11.2928932,6.70710678 L12.7071068,5.29289322 L19.4142136,12 L12.7071068,18.7071068 L11.2928932,17.2928932 L16.5857864,12 L11.2928932,6.70710678 Z M6.29289322,6.70710678 L7.70710678,5.29289322 L14.4142136,12 L7.70710678,18.7071068 L6.29289322,17.2928932 L11.5857864,12 L6.29289322,6.70710678 Z"/>
</svg>

<svg xmlns="http://www.w3.org/2000/svg" width="24" height="24" viewBox="0 0 24 24"><path fill-rule="evenodd" d="M11.293 6.707l1.414-1.414L19.414 12l-6.707 6.707-1.414-1.414L16.586 12l-5.293-5.293zm-5 0l1.414-1.414L14.414 12l-6.707 6.707-1.414-1.414L11.586 12 6.293 6.707z"/></svg>
